svgs/charts/line-chart-down-02.svg

<svg width="24" height="24" viewBox="0 0 24 24" fill="none" xmlns="http://www.w3.org/2000/svg">
<path d="M21 21H4.6C4.03995 21 3.75992 21 3.54601 20.891C3.35785 20.7951 3.20487 20.6422 3.10899 20.454C3 20.2401 3 19.9601 3 19.4V3M21 15L15.5657 9.56569C15.3677 9.36768 15.2687 9.26867 15.1545 9.23158C15.0541 9.19895 14.9459 9.19895 14.8455 9.23158C14.7313 9.26867 14.6323 9.36768 14.4343 9.56569L12.5657 11.4343C12.3677 11.6323 12.2687 11.7313 12.1545 11.7684C12.0541 11.8011 11.9459 11.8011 11.8455 11.7684C11.7313 11.7313 11.6323 11.6323 11.4343 11.4343L7 7M21 15H17M21 15V11" stroke="#1C1D20" stroke-width="1.5" stroke-linecap="round" stroke-linejoin="round"/>
</svg>

<svg fill="none" xmlns="http://www.w3.org/2000/svg" viewBox="0 0 24 24"><path d="M21 21H4.6c-.56 0-.84 0-1.054-.109a1 1 0 0 1-.437-.437C3 20.24 3 19.96 3 19.4V3m18 12-5.434-5.434c-.198-.198-.297-.297-.412-.334a.5.5 0 0 0-.309 0c-.114.037-.213.136-.41.334l-1.87 1.868c-.197.198-.296.297-.41.334a.499.499 0 0 1-.31 0c-.114-.037-.213-.136-.41-.334L7 7m14 8h-4m4 0v-4" stroke="#1C1D20" stroke-width="1.5" stroke-linecap="round" stroke-linejoin="round"/></svg>
